!!!COM: Palestrina, Giovanni Perluigi da
!!!OPR: Missa De feria
!!!OMD: Benedictus
!!!OTL: Hosanna
**kern	**kern	**kern	**kern
*Ibass	*Itenor	*Icalto	*Icant
!Bassus	!Tenor	!Altus	!Cantus
*clefF4	*clefGv2	*clefG2	*clefG2
*k[]	*k[]	*k[]	*k[]
*E:phr	*E:phr	*E:phr	*E:phr
*M4/2	*M4/2	*M4/2	*M4/2
=38	=38	=38	=38
0A	2.A	1r	0e
.	4B	.	.
.	4c	[1e	.
.	4d	.	.
.	[2c	.	.
=39	=39	=39	=39
0E	2c]	1e]	0g
.	4B	.	.
.	4A	.	.
.	1B	1e	.
=40	=40	=40	=40
1F	1A	1c	0a
1D	2.f	2.d	.
.	4e	4e	.
=41	=41	=41	=41
1D	4d	4f	[0a
.	4c	4g	.
.	1d	1f	.
1A	.	.	.
.	4c	4e	.
.	4B	4d	.
=42	=42	=42	=42
1AA	1c	1e	0a]
2.D	1d	2.f	.
4E	.	8e	.
.	.	8d	.
=43	=43	=43	=43
4F	2.A	1c	0a
4G	.	.	.
1F	.	.	.
.	4B	.	.
.	4c	1A	.
.	4d	.	.
4E	[2c	.	.
4D	.	.	.
=44	=44	=44	=44
1E	2c]	1r	0g
.	4B	.	.
.	4A	.	.
1r	1B	2.d	.
.	.	4e	.
=45	=45	=45	=45
2.D	1A	4f	2.a
.	.	4g	.
.	.	1f	.
4E	.	.	4g
4F	2.A	.	4a
4G	.	.	4b
[2A	.	4e	[2cc
.	4B	4d	.
=46	=46	=46	=46
2A]	2c	2e	2cc]
4G	2d	1g	4b
4F	.	.	4a
2E	2e	.	2cc
2G	2B	2d	[2b
=47	=47	=47	=47
2F	2c	1f	4b]
.	.	.	4a
2D	2d	.	1a
1E	1B	1e	.
.	.	.	2g#
=48	=48	=48	=48
1AA	1A	2r	[0a
.	.	2e	.
2.D	1r	2f	.
.	.	2d	.
4E	.	.	.
=49	=49	=49	=49
4F	2.A	1c	1a_
4G	.	.	.
1F	.	.	.
.	4B	.	.
.	2c	1f	1a_
4E	[2d	.	.
4D	.	.	.
=50	=50	=50	=50
1A	2d]	1e	0a]
.	2c	.	.
1D	2.f	2.d	.
.	4e	4e	.
=51	=51	=51	=51
1D	4d	4f	[0a
.	4c	4g	.
.	1d	1f	.
1A	.	.	.
.	4c	4e	.
.	4B	4d	.
=52	=52	=52	=52
0AA	0c#	0e	0a]
==	==	==	==
*-	*-	*-	*-
!!!CDT: 1525/^1526/-1594/2/2
!!!OCY: Italia
!!!AGN: Mass (Paraphrase)
!!!AST: renaissance, vocal
!!!ASW: Gregorian Mass
!!!PWK: Masses, Book 3
!!!RNB: Cadence finals: A
!!!YOR: Le Opere Complete, v. 6, p. 84
!!!YOO: Rome, Italy: Fratelli Scalera
!!!END: 1992//
!!!EED: John Miller
!!!YEC: Copyright 2000, John Miller
!!!YEN: United States of America
!!!YEM: Rights to all derivative electronic formats reserved.
!!!YEM: Refer to licensing agreement for further details.
!!!YEM: This file must be accompanied by the licensing agreement.
!!!YEM: A copy of the licensing agreement may be found at http://www.music-cog.ohio-state.edu/HumdrumDatabases/Palestrina/license.txt
!!!EMD: converted to Humdrum by Bret Aarden
